public/images/Logo-white.svg

<svg width="240" height="91" viewBox="0 0 240 91" fill="none" xmlns="http://www.w3.org/2000/svg">
<path d="M127.509 54.785C126.478 56.6892 124.191 60.8461 123.151 61.3026C122.11 61.759 120.771 62.0289 119.141 62.1074H101.301L104.02 52.6649L106.872 43.8357C107.951 43.8897 109.821 43.9584 111.838 43.8799C116.133 43.718 119.023 43.0161 120.432 41.7892C121.414 40.9352 121.433 40.096 120.913 38.8789C120.221 37.2495 118.297 36.317 116.035 34.879C114.008 33.5883 111.942 32.0227 110.852 30.2853L110.224 28.9013C110.042 28.2535 110.018 27.591 110.199 26.9088C110.484 25.8291 112.285 23.5911 113.306 22.3887L114.047 21.6329H129.737C131.317 21.7114 132.481 21.9814 133.227 22.4378C133.973 22.8942 133.575 27.0511 133.374 28.9553H133.717L136.191 21.0391H110.037L109.939 21.3384C110.445 21.3384 110.769 21.466 110.916 21.7262C111.063 21.9863 111.004 22.5114 110.749 23.3016L109.978 25.6818C109.944 25.7407 109.91 25.7947 109.88 25.8536C109.659 26.261 109.497 26.6634 109.394 27.056C108.506 30.4178 111.995 32.6411 115.372 34.7858C117.59 36.1943 119.681 37.5292 120.339 39.0654C120.766 40.0715 120.349 40.8567 119.711 41.4898C118.017 43.1634 112.059 42.9622 107.284 42.5548V42.5352C106.033 42.4517 105.179 42.383 105.179 42.383L104.634 42.2407L98.7592 60.4339C98.504 61.2289 98.2193 61.7541 97.9052 62.0093C97.5911 62.2694 97.1838 62.397 96.6783 62.397L96.5801 62.6964H125.212L127.853 54.7801H127.509V54.785Z" fill="#EEE7E1"/>
<path d="M82.5442 0.5L18.2865 90.3665H19.5822L83.8791 0.5H82.5442Z" fill="#EEE7E1"/>
<path d="M34.0202 51.4967C35.6692 48.341 36.4986 44.9792 36.4986 41.4063C36.4986 37.8334 35.6594 34.3244 33.9858 31.1098C32.3123 27.8952 29.824 25.2989 26.5162 23.3113C23.2132 21.3285 19.2674 20.3372 14.6786 20.3372H0.5V20.6365C1.0055 20.6365 1.37359 20.7641 1.59934 21.0242C1.83001 21.2844 1.94289 21.8095 1.94289 22.5996V59.8007C1.94289 60.5958 1.83001 61.1209 1.59934 61.3761C1.36868 61.6362 1.00059 61.7638 0.5 61.7638V62.0632H14.8847C19.4735 62.0632 23.3948 61.0914 26.6536 59.148C29.9124 57.2045 32.3663 54.6524 34.0202 51.5016V51.4967ZM14.9534 61.4644H4.69616V20.9359H14.5363C18.6196 20.9359 22.109 21.8978 24.9997 23.8217C27.8904 25.7455 30.0596 28.2534 31.5025 31.3502C32.9454 34.4471 33.6717 37.7598 33.6717 41.2885C33.6717 44.8172 32.9601 48.0662 31.5369 51.1384C30.1136 54.2156 27.9787 56.7039 25.1371 58.6081C22.2906 60.5123 18.8944 61.4644 14.9485 61.4644H14.9534Z" fill="#EEE7E1"/>
<path d="M174.845 22.1679C175.439 21.6133 176.15 21.3336 176.975 21.3336L177.068 21.0342H171.429L171.331 21.3336C172.155 21.3336 172.685 21.6133 172.921 22.1679C173.152 22.7225 173.044 23.6942 172.597 25.0831L161.854 58.353L145.202 21.0342H140.799L140.701 21.3336C141.118 21.3336 141.423 21.4415 141.629 21.6624C141.835 21.8783 142.139 22.428 142.547 23.2967L142.625 23.4734L131.269 58.6475C130.822 60.0364 130.302 61.0081 129.708 61.5627C129.114 62.1173 128.407 62.397 127.583 62.397L127.485 62.6964H133.129L133.227 62.397C132.402 62.397 131.872 62.1222 131.637 61.5627C131.401 61.0081 131.509 60.0364 131.961 58.6475L143.033 24.3666L160.455 62.6964H161.142L173.289 25.0782C173.741 23.6893 174.261 22.7176 174.85 22.163L174.845 22.1679Z" fill="#EEE7E1"/>
<path d="M213.846 21.0342L213.748 21.3336C214.254 21.3336 214.578 21.4612 214.725 21.7213C214.872 21.9814 214.818 22.5065 214.563 23.2967L208.742 41.3181C208.875 41.3083 209.017 41.2984 209.159 41.2935V41.3475C214.288 40.9009 221.036 40.5672 221.866 42.3389C222.165 42.972 222.155 43.7622 221.188 44.7633C219.701 46.2995 216.889 47.6344 213.91 49.0429C210.701 50.5644 207.412 52.1201 205.434 54.0931C204.806 54.6918 204.242 55.3838 203.972 56.1102L203.898 56.3359C203.844 56.4782 203.795 56.6255 203.751 56.7727C203.751 56.7923 203.751 56.812 203.736 56.8316L202.568 60.4388C202.308 61.2339 202.024 61.759 201.714 62.0142C201.4 62.2743 200.993 62.4019 200.487 62.4019L200.389 62.7013H229.021L231.662 54.7851H231.318C230.292 56.6893 228.005 60.8462 226.96 61.3026C225.92 61.759 224.585 62.0289 222.95 62.1075H205.14C204.939 61.3909 204.1 58.2647 204.468 56.9249C205.322 53.8378 209.866 51.4674 214.264 49.3865C217.306 47.9485 220.177 46.5841 221.753 44.9547C222.931 43.7327 223.264 42.8984 222.744 42.0444C222.003 40.8175 219.49 40.1157 215.28 39.9537C214.087 39.9095 212.924 39.9144 211.942 39.939L217.851 21.6329H233.546C235.127 21.7115 236.29 21.9814 237.036 22.4378C237.782 22.8942 237.384 27.0511 237.183 28.9554H237.527L240 21.0391H213.846V21.0342Z" fill="#EEE7E1"/>
<path d="M95.8879 47.5805C94.9554 45.9118 93.6597 44.4248 91.996 43.1144C90.3323 41.804 88.1287 40.2777 85.3901 38.5305C82.9068 36.9846 81.0958 35.7723 79.9572 34.8987C78.8186 34.0252 77.9794 33.1025 77.4444 32.1308C76.9095 31.159 76.7524 30.04 76.9831 28.7689C77.2972 27.223 78.2248 25.8537 79.756 24.6611C81.2872 23.4685 83.2062 22.5409 85.5128 21.8637C87.8195 21.1913 90.2096 20.8527 92.688 20.8527C96.4032 20.8527 99.2006 21.5299 101.085 22.8747C102.965 24.2243 103.848 26.4524 103.637 28.9505L103.961 28.9407L106.43 21.0146C106.43 21.0146 105.458 21.0244 105.448 21.0441C104.948 21.9226 104.236 23.3311 103.775 23.6599C102.386 22.3888 100.835 21.6919 99.0043 21.1177C97.1688 20.5435 95.0388 20.2539 92.6046 20.2539C88.7029 20.2539 85.027 21.049 81.5817 22.6342C78.1315 24.2243 75.7905 26.5015 74.5537 29.4805C73.8126 31.3455 74.2887 33.181 75.977 34.9871C77.6653 36.7932 80.232 38.7465 83.6871 40.8519C86.2146 42.3979 88.2563 43.7917 89.8071 45.0186C91.358 46.2505 92.5261 47.605 93.3064 49.097C94.0867 50.584 94.2045 52.184 93.6499 53.887C93.0708 55.6734 92.0009 57.2194 90.4304 58.5298C89.8022 59.05 89.1348 59.5211 88.428 59.9432C88.4771 59.9039 88.5262 59.8696 88.5753 59.8303C86.8036 60.7971 85.2576 61.6806 82.4651 60.9738C79.0542 60.1052 76.8849 55.3593 74.5832 50.9619C72.993 47.9191 71.4864 45.0481 69.6803 43.4727C68.3307 42.2948 66.9516 41.9611 66.0093 42.4764C64.6547 43.2224 64.0903 45.7351 63.9136 49.9411C63.786 52.9938 62.2401 59.0156 62.2401 59.0549L61.5383 61.3812C61.5383 61.3812 62.6327 60.0119 62.6523 59.9923C63.1775 59.5309 63.732 59.1776 64.1934 58.8831L64.7283 58.8389C66.0583 60.2377 67.5847 61.0818 69.4005 61.8278C71.295 62.6032 73.5231 63.0793 76.0948 63.2609C80.2173 63.5553 84.1632 62.9517 87.9373 61.4597C91.7064 59.9628 94.3616 57.6218 95.9026 54.4268C96.1185 53.9557 96.3247 53.298 96.4621 52.6404C96.9774 50.8589 96.7909 49.1706 95.9026 47.5756L95.8879 47.5805ZM66.5442 43.3647C67.246 43.0653 68.1147 43.0751 69.2239 44.0469C70.9269 45.5339 72.3992 48.3461 73.9599 51.3251C76.3352 55.8599 78.7941 60.5518 82.5093 61.4842C82.946 61.5922 83.3927 61.6462 83.8393 61.6462C84.1239 61.6462 84.4086 61.6266 84.6932 61.5922C82.7056 62.2106 80.7179 62.5247 78.7401 62.5247C74.5194 62.5247 71.398 61.7002 69.3858 60.0561C68.311 59.1776 67.192 58.1862 66.3872 56.9985C65.8375 56.0022 65.4596 54.79 65.2191 53.4944C65.2191 53.4502 65.2191 53.406 65.2191 53.3619H65.1995C64.4437 49.043 65.2437 43.9242 66.5442 43.3696V43.3647Z" fill="#EEE7E1"/>
<path d="M199.649 47.5805C198.721 45.9119 197.421 44.4248 195.757 43.1144C194.093 41.804 191.89 40.2777 189.151 38.5305C186.668 36.9846 184.857 35.7724 183.718 34.8988C182.575 34.0252 181.74 33.1025 181.205 32.1308C180.67 31.159 180.513 30.0401 180.739 28.7689C181.058 27.223 181.981 25.8537 183.512 24.6611C185.043 23.4685 186.962 22.541 189.269 21.8637C189.337 21.8441 189.406 21.8244 189.475 21.8048C190.442 21.6919 191.34 21.6477 191.865 21.7606C195.084 22.4526 195.973 26.1286 196.621 29.6818C197.072 32.1406 197.715 35.1098 198.967 36.3858C199.904 37.3379 200.768 37.3919 201.955 36.9748C203.663 36.3711 205.96 33.3381 207.275 30.0597C207.423 29.6867 207.565 29.3137 207.702 28.9407H207.717L207.796 28.6855C208.571 26.5261 209.116 24.5581 209.121 24.5384L209.091 24.5237L210.186 21.0097C210.186 21.0097 209.214 21.0195 209.199 21.0392C208.699 21.9177 207.987 23.3262 207.531 23.655C206.142 22.3839 204.591 21.687 202.755 21.1128C200.925 20.5386 198.79 20.249 196.36 20.249C193.784 20.249 191.305 20.5975 188.925 21.2895C187.86 21.525 186.673 21.9275 185.357 22.5066C185.357 22.5066 185.544 22.4673 185.853 22.4035C185.681 22.4772 185.509 22.5557 185.338 22.6342C181.887 24.2243 179.546 26.5015 178.31 29.4806C177.569 31.3455 178.04 33.181 179.728 34.9871C181.416 36.7932 183.988 38.7465 187.438 40.8519C189.966 42.3979 192.007 43.7917 193.558 45.0186C195.114 46.2505 196.277 47.605 197.062 49.097C197.843 50.5841 197.956 52.184 197.406 53.887C196.832 55.6734 195.757 57.2194 194.186 58.5298C192.616 59.8402 190.795 60.8315 188.719 61.5039C186.643 62.1812 184.572 62.5149 182.506 62.5149C178.285 62.5149 175.169 61.6904 173.152 60.0463C171.139 58.4022 168.985 56.3703 168.985 53.3521H168.008V53.3373L167.665 53.3226L164.862 62.8928C164.862 62.8928 165.834 61.6413 165.849 61.6217C166.448 60.6892 167.797 58.9862 168.308 58.6574C169.677 60.169 171.257 61.0524 173.152 61.8278C175.041 62.6032 177.274 63.0793 179.846 63.2609C183.968 63.5554 187.914 62.9517 191.683 61.4597C195.457 59.9629 198.113 57.6218 199.654 54.4269C199.87 53.9557 200.076 53.2981 200.213 52.6404C200.728 50.8589 200.542 49.1706 199.649 47.5756V47.5805ZM196.444 20.8576C200.159 20.8576 202.957 21.5349 204.841 22.8796C206.073 23.763 206.873 25.0243 207.221 26.4917C206.991 27.5273 206.755 28.6364 206.372 29.7652C205.298 32.9602 203.413 36.2877 201.965 36.6999C201.116 36.9404 200.429 36.9355 199.659 36.1503C198.476 34.9479 197.848 31.8118 197.406 29.402C196.733 25.731 195.826 21.9373 192.321 21.1864C192.316 21.1864 192.312 21.1864 192.312 21.1864C193.661 20.9705 195.035 20.8576 196.444 20.8576Z" fill="#EEE7E1"/>
</svg>

<svg xmlns="http://www.w3.org/2000/svg" width="240" height="91" fill="none" viewBox="0 0 240 91"><path fill="#eee7e1" d="M127.509 54.785c-1.031 1.904-3.318 6.061-4.358 6.518q-1.563.686-4.01.804h-17.84l2.719-9.442 2.852-8.83a57 57 0 0 0 4.966.045c4.295-.162 7.185-.864 8.594-2.09.982-.855 1.001-1.694.481-2.911-.692-1.63-2.616-2.562-4.878-4-2.027-1.29-4.093-2.856-5.183-4.594l-.628-1.384a3.7 3.7 0 0 1-.025-1.992c.285-1.08 2.086-3.318 3.107-4.52l.741-.756h15.69q2.37.118 3.49.805c.746.456.348 4.613.147 6.517h.343l2.474-7.916h-26.154l-.098.3q.758-.002.977.387c.147.26.088.785-.167 1.576l-.771 2.38c-.034.059-.068.113-.098.172q-.332.612-.486 1.202c-.888 3.362 2.601 5.585 5.978 7.73 2.218 1.408 4.309 2.743 4.967 4.28.427 1.005.01 1.79-.628 2.424-1.694 1.673-7.652 1.472-12.427 1.065v-.02c-1.251-.083-2.105-.152-2.105-.152l-.545-.142-5.875 18.193q-.383 1.193-.854 1.575-.47.389-1.227.388l-.098.3h28.632l2.641-7.917h-.344zM82.544.5 18.287 90.367h1.295L83.88.5zM34.02 51.497a21.5 21.5 0 0 0 2.479-10.09c0-3.574-.84-7.083-2.513-10.297s-4.162-5.811-7.47-7.799q-4.955-2.974-11.837-2.974H.5v.3q.76-.002 1.1.387.344.39.343 1.576v37.2q.001 1.193-.344 1.576-.346.389-1.099.388v.3h14.385q6.882 0 11.769-2.916c3.258-1.944 5.712-4.496 7.366-7.646zm-19.067 9.967H4.696V20.936h9.84q6.127 0 10.464 2.886 4.337 2.884 6.503 7.528c1.442 3.097 2.169 6.41 2.169 9.938 0 3.53-.712 6.778-2.135 9.85q-2.136 4.616-6.4 7.47-4.27 2.856-10.189 2.856zM174.845 22.168a3.02 3.02 0 0 1 2.13-.834l.093-.3h-5.639l-.098.3q1.236.001 1.59.834.346.832-.324 2.915l-10.743 33.27-16.652-37.319h-4.403l-.098.3c.417 0 .722.108.928.328.206.216.51.766.918 1.635l.078.176-11.356 35.174q-.67 2.084-1.561 2.916a3 3 0 0 1-2.125.834l-.098.3h5.644l.098-.3c-.825 0-1.355-.275-1.59-.834q-.354-.833.324-2.916l11.072-34.28 17.422 38.33h.687l12.147-37.619q.678-2.083 1.561-2.915zM213.846 21.034l-.098.3q.758-.002.977.387.22.39-.162 1.576l-5.821 18.021c.133-.01.275-.02.417-.024v.053c5.129-.446 11.877-.78 12.707.992.299.633.289 1.423-.678 2.424-1.487 1.537-4.299 2.871-7.278 4.28-3.209 1.521-6.498 3.077-8.476 5.05-.628.599-1.192 1.29-1.462 2.017l-.074.226q-.081.215-.147.437c0 .02 0 .039-.015.059l-1.168 3.607q-.39 1.192-.854 1.575-.47.389-1.227.388l-.098.3h28.632l2.641-7.917h-.344c-1.026 1.904-3.313 6.061-4.358 6.518q-1.559.685-4.01.805h-17.81c-.201-.717-1.04-3.843-.672-5.183.854-3.087 5.398-5.458 9.796-7.538 3.042-1.438 5.913-2.803 7.489-4.432 1.178-1.222 1.511-2.057.991-2.91-.741-1.227-3.254-1.93-7.464-2.091a55 55 0 0 0-3.338-.015l5.909-18.306h15.695q2.371.119 3.49.805c.746.456.348 4.613.147 6.517h.344L240 21.04h-26.154zM95.888 47.58q-1.398-2.5-3.892-4.466-2.497-1.964-6.606-4.583-3.725-2.32-5.433-3.632-1.709-1.311-2.513-2.768c-.535-.972-.692-2.091-.46-3.362.313-1.546 1.24-2.915 2.772-4.108s3.45-2.12 5.757-2.797a25.5 25.5 0 0 1 7.175-1.011c3.715 0 6.513.677 8.397 2.022 1.88 1.35 2.763 3.577 2.552 6.076l.324-.01 2.469-7.926s-.972.01-.982.03c-.5.878-1.212 2.286-1.673 2.615-1.389-1.271-2.94-1.968-4.77-2.542-1.836-.574-3.966-.864-6.4-.864q-5.854.001-11.023 2.38c-3.45 1.59-5.791 3.867-7.028 6.846q-1.11 2.798 1.423 5.507c1.688 1.806 4.255 3.76 7.71 5.865 2.528 1.546 4.57 2.94 6.12 4.167 1.551 1.232 2.72 2.586 3.5 4.078.78 1.487.897 3.087.343 4.79-.58 1.786-1.65 3.332-3.22 4.643q-.942.78-2.002 1.413c.05-.04.098-.073.147-.113-1.771.967-3.317 1.85-6.11 1.144-3.41-.869-5.58-5.615-7.882-10.012-1.59-3.043-3.097-5.914-4.903-7.49-1.35-1.177-2.728-1.51-3.67-.996-1.355.746-1.92 3.26-2.096 7.465-.128 3.053-1.674 9.075-1.674 9.114l-.702 2.326s1.095-1.37 1.114-1.389c.526-.461 1.08-.814 1.541-1.109l.535-.044c1.33 1.399 2.857 2.243 4.672 2.989 1.895.775 4.123 1.251 6.695 1.433 4.122.294 8.068-.31 11.842-1.801 3.77-1.497 6.425-3.838 7.966-7.033.215-.471.422-1.129.56-1.787q.772-2.672-.56-5.064zm-29.344-4.215c.702-.3 1.57-.29 2.68.682 1.703 1.487 3.175 4.3 4.736 7.278 2.375 4.535 4.834 9.227 8.55 10.16a5.5 5.5 0 0 0 1.33.161q.427-.001.853-.054c-1.987.619-3.975.933-5.953.933-4.22 0-7.342-.825-9.354-2.469-1.075-.878-2.194-1.87-2.999-3.057-.55-.997-.927-2.209-1.168-3.505v-.132h-.02c-.755-4.319.045-9.438 1.345-9.992zM199.649 47.58c-.928-1.668-2.228-3.155-3.892-4.466q-2.497-1.964-6.606-4.583-3.725-2.32-5.433-3.632-1.713-1.311-2.513-2.768c-.535-.972-.692-2.09-.466-3.362q.477-2.319 2.773-4.108c1.531-1.193 3.45-2.12 5.757-2.797l.206-.06c.967-.112 1.865-.156 2.39-.043 3.219.692 4.108 4.368 4.756 7.92.451 2.46 1.094 5.429 2.346 6.705.937.952 1.801 1.006 2.988.589 1.708-.604 4.005-3.637 5.32-6.915q.222-.56.427-1.12h.015l.079-.255a65 65 0 0 0 1.325-4.147l-.03-.014 1.095-3.514s-.972.01-.987.03c-.5.878-1.212 2.286-1.668 2.615-1.389-1.271-2.94-1.968-4.776-2.542-1.83-.574-3.965-.864-6.395-.864a26.5 26.5 0 0 0-7.435 1.04c-1.065.236-2.252.638-3.568 1.218l.496-.104q-.258.112-.515.231c-3.451 1.59-5.792 3.867-7.028 6.847q-1.113 2.797 1.418 5.506 2.534 2.708 7.71 5.865c2.528 1.546 4.569 2.94 6.12 4.167 1.556 1.232 2.719 2.586 3.504 4.078.781 1.487.894 3.087.344 4.79q-.862 2.678-3.22 4.643-2.354 1.965-5.467 2.974a20 20 0 0 1-6.213 1.01q-6.33-.001-9.354-2.468c-2.013-1.644-4.167-3.676-4.167-6.694h-.977v-.015l-.343-.014-2.803 9.57.987-1.271c.599-.933 1.948-2.636 2.459-2.965 1.369 1.512 2.949 2.395 4.844 3.17q2.835 1.163 6.694 1.434c4.122.294 8.068-.31 11.837-1.801 3.774-1.497 6.43-3.838 7.971-7.033.216-.471.422-1.129.559-1.787q.774-2.672-.564-5.064zm-3.205-26.722c3.715 0 6.513.677 8.397 2.022 1.232.883 2.032 2.144 2.38 3.612-.23 1.035-.466 2.144-.849 3.273-1.074 3.195-2.959 6.523-4.407 6.935-.849.24-1.536.235-2.306-.55-1.183-1.202-1.811-4.338-2.253-6.748-.673-3.671-1.58-7.465-5.085-8.216h-.009a26 26 0 0 1 4.132-.328"/></svg>
